svgs/sharp-solid/hexagon-divide.svg

<svg xmlns="http://www.w3.org/2000/svg" viewBox="0 0 512 512"><!--! Font Awesome Pro 6.6.0 by @fontawesome - https://fontawesome.com License - https://fontawesome.com/license (Commercial License) Copyright 2024 Fonticons, Inc. --><path d="M0 256L128 32l256 0L512 256 384 480l-256 0L0 256zM288 128l-64 0 0 64 64 0 0-64zM168 232l-24 0 0 48 24 0 176 0 24 0 0-48-24 0-176 0zm56 88l0 64 64 0 0-64-64 0z"/></svg>

<svg xmlns="http://www.w3.org/2000/svg" viewBox="0 0 512 512"><!--! Font Awesome Pro 6.4.2 by @fontawesome - https://fontawesome.com License - https://fontawesome.com/license (Commercial License) Copyright 2023 Fonticons, Inc. --><path d="M0 256L128 32H384L512 256 384 480H128L0 256zM288 128H224v64h64V128zM168 232H144v48h24H344h24V232H344 168zm56 88v64h64V320H224z"/></svg>
